!! 00000] TT[00
!! NN
!!!OTL: Huanghe chuangong haozi
!!!ARE: Asia, China,ÿHenan, Fengqiu
!! Ethnic Group: Han
!! IV, 175
!!!SCT: C0398
!!!YEM: Copyright 1995, estate of Helmut Schaffrath.
**kern
*ICvox
*Ivox
*M2/4
*k[f#c#g#d#]
*E:
{8ff#
8gg#
8ff#
8gg#
=1
4ff#
[4ff#
=2
2ff#_
=3
2ff#]}
=4
{16gg#
16ff#
8gg#
16gg#
16ff#
8gg#
=5
16gg#
16ff#
8gg#
16gg#
16ff#
8gg#
=6
2ff#}
=7
{8ee
4ff#
16ee
16ff#
=8
8ff#
4gg#
16ff#
16ee
=9
2cc#}
=10
{8ff#
4gg#
16ff#
16ee
=11
16cc#
16ee
8ff#
[4ff#
=12
2ff#]}
=13
{8ee
8ff#
4ff#
=14
4gg#
8ff#
8gg#}
=15
{8ee
8ff#
4ff#
=16
8gg#
16ff#
16gg#
4ff#}
=17
{8ff#
4ff#
16b
16cc#
=18
8ee
16cc#
16b
4b}
=19
{8f#
4f#
16b
16cc#
=20
8ee
16cc#
16b
4b}
=21
{8gg#
4ff#
16b
16cc#
=22
8ee
16cc#
16b
4b}
=23
{8ee
4ff#
8cc#
=24
4b
4b}
=25
{8ee
8ff#
8gg#
16gg#
16ee
=26
2ff#}
=27
{4ee
4ff#
=28
8gg#
16gg#
16ee
4ff#}
=29
{4ee
4ff#
=30
8gg#
16gg#
16ff#
4ee}
=31
{8ee
4ff#
8ff#
=32
8.gg#
16ff#
4ee}
=33
{8gg#
8ee
8ff#
8ff#
=34
8gg#
16gg#
16ee
4ff#}
=35
{4ee
4ff#
=36
8gg#
16gg#
16ee
4ff#}
=37
{8ee
8ff#
8ff#
8ff#
=38
8gg#
16gg#
16ff#
4ee}
=39
{8ee
4ff#
8ff#
=40
8.gg#
16ff#
4ee}
=41
{8ee
16ee
16ee
8ee
8ff#
=42
8gg#
16gg#
16ee
4ff#}
=43
{4ff#
4ff#
=44
8.b
16cc#
4ee}
=45
{8ff#
4ff#
16b
16cc#
=46
8ee
16cc#
16b
4b}
=47
{8ff#
4ff#
16b
16cc#
=48
8ee
16cc#
16b
4b}
==
!!!ONB: ESAC (Essen Associative Code) Database: CHINA
!!!AMT: simple duple
!!!AIN: vox
!!!EED: Helmut Schaffrath
!!!EEV: 1.0
*-
!!!ONB: Tied note syntax fixed by Craig Sapp, 2004/05/03/
